lib/images/icons/change.svg

<svg xmlns="http://www.w3.org/2000/svg" viewBox="0 0 64 64" fill="none">
    <path fill="currentColor" d="M60.1765 36.3614L60.395 36.369C62.9031 36.5464 63.9591 39.7619 61.9368 41.3797L47.8472 52.6514L47.6609 52.7885C46.4566 53.6014 44.81 53.3658 43.8864 52.2113L43.7493 52.025C42.9365 50.8208 43.172 49.1742 44.3265 48.2506L52.144 41.9972H15.0896L14.8793 41.9895C13.4213 41.8819 12.2717 40.6648 12.2717 39.1793C12.2717 37.623 13.5333 36.3614 15.0896 36.3614H60.1765ZM16.3391 11.4805C17.5434 10.6676 19.19 10.9032 20.1136 12.0577L20.2507 12.244C21.0635 13.4483 20.828 15.0949 19.6735 16.0185L11.856 22.2718H48.9104L49.1207 22.2795C50.5787 22.3871 51.7283 23.6042 51.7283 25.0897C51.7283 26.646 50.4667 27.9077 48.9104 27.9077H3.8235L3.605 27.9C1.09692 27.7226 0.0409107 24.5071 2.06315 22.8893L16.1528 11.6176L16.3391 11.4805Z"/>
</svg>

<svg xmlns="http://www.w3.org/2000/svg" fill="none" viewBox="0 0 64 64"><path fill="currentColor" d="m60.176 36.361.219.008c2.508.177 3.564 3.393 1.542 5.01l-14.09 11.272-.186.137a2.818 2.818 0 0 1-3.775-.577l-.137-.186a2.818 2.818 0 0 1 .578-3.774l7.817-6.254H15.09l-.21-.008a2.818 2.818 0 0 1 .21-5.628h45.087ZM16.34 11.481a2.818 2.818 0 0 1 3.775.577l.137.186a2.818 2.818 0 0 1-.578 3.774l-7.817 6.254H48.91l.21.008a2.818 2.818 0 0 1-.21 5.628H3.824l-.219-.008c-2.508-.177-3.564-3.393-1.542-5.01l14.09-11.272.186-.138Z"/></svg>
